cached_logos/onap-modelling.svg

<svg xmlns="http://www.w3.org/2000/svg" role="img" xmlns:xlink="http://www.w3.org/1999/xlink" viewBox="-2.25 1.25 260.00 136.25"><title>ONAP Modelling logo</title><defs><g id="glyph-0-0"><path d="M 2.898438 -20.917969 C 2.898438 -28.046875 4.8125 -33.628906 8.640625 -37.660156 C 12.46875 -41.695312 17.414062 -43.710938 23.46875 -43.710938 C 27.433594 -43.710938 31.007812 -42.765625 34.1875 -40.867188 C 37.371094 -38.972656 39.800781 -36.332031 41.46875 -32.945312 C 43.140625 -29.554688 43.976562 -25.710938 43.976562 -21.414062 C 43.976562 -17.058594 43.09375 -13.164062 41.335938 -9.726562 C 39.578125 -6.289062 37.089844 -3.6875 33.867188 -1.917969 C 30.644531 -0.152344 27.167969 0.734375 23.4375 0.734375 C 19.394531 0.734375 15.78125 -0.242188 12.597656 -2.195312 C 9.414062 -4.148438 7 -6.816406 5.359375 -10.195312 C 3.71875 -13.574219 2.898438 -17.148438 2.898438 -20.917969 Z M 8.757812 -20.828125 C 8.757812 -15.652344 10.152344 -11.578125 12.933594 -8.597656 C 15.71875 -5.621094 19.210938 -4.132812 23.40625 -4.132812 C 27.683594 -4.132812 31.207031 -5.632812 33.96875 -8.640625 C 36.734375 -11.648438 38.117188 -15.917969 38.117188 -21.445312 C 38.117188 -24.941406 37.523438 -27.992188 36.34375 -30.601562 C 35.160156 -33.207031 33.433594 -35.230469 31.15625 -36.664062 C 28.882812 -38.101562 26.328125 -38.820312 23.496094 -38.820312 C 19.472656 -38.820312 16.011719 -37.4375 13.109375 -34.671875 C 10.210938 -31.910156 8.757812 -27.296875 8.757812 -20.828125 Z M 8.757812 -20.828125"/></g><g id="glyph-0-1"><path d="M 4.570312 0 L 4.570312 -42.949219 L 10.398438 -42.949219 L 32.960938 -9.226562 L 32.960938 -42.949219 L 38.40625 -42.949219 L 38.40625 0 L 32.578125 0 L 10.019531 -33.75 L 10.019531 0 Z M 4.570312 0"/></g><g id="glyph-0-2"><path d="M -0.0859375 0 L 16.40625 -42.949219 L 22.53125 -42.949219 L 40.109375 0 L 33.632812 0 L 28.625 -13.007812 L 10.664062 -13.007812 L 5.945312 0 Z M 12.304688 -17.636719 L 26.867188 -17.636719 L 22.382812 -29.53125 C 21.015625 -33.144531 20 -36.113281 19.335938 -38.4375 C 18.789062 -35.683594 18.015625 -32.949219 17.023438 -30.234375 Z M 12.304688 -17.636719"/></g><g id="glyph-0-3"><path d="M 4.628906 0 L 4.628906 -42.949219 L 20.828125 -42.949219 C 23.679688 -42.949219 25.859375 -42.8125 27.363281 -42.539062 C 29.472656 -42.1875 31.242188 -41.519531 32.664062 -40.53125 C 34.089844 -39.546875 35.238281 -38.164062 36.109375 -36.386719 C 36.976562 -34.609375 37.414062 -32.65625 37.414062 -30.527344 C 37.414062 -26.875 36.25 -23.785156 33.925781 -21.253906 C 31.601562 -18.726562 27.402344 -17.460938 21.328125 -17.460938 L 10.3125 -17.460938 L 10.3125 0 Z M 10.3125 -22.53125 L 21.414062 -22.53125 C 25.085938 -22.53125 27.695312 -23.210938 29.238281 -24.578125 C 30.78125 -25.945312 31.554688 -27.871094 31.554688 -30.351562 C 31.554688 -32.148438 31.097656 -33.6875 30.191406 -34.964844 C 29.28125 -36.246094 28.085938 -37.089844 26.601562 -37.5 C 25.644531 -37.753906 23.875 -37.882812 21.296875 -37.882812 L 10.3125 -37.882812 Z M 10.3125 -22.53125"/></g><g id="glyph-0-4"><path d="M 4.453125 0 L 4.453125 -42.949219 L 13.007812 -42.949219 L 23.171875 -12.539062 C 24.109375 -9.707031 24.796875 -7.585938 25.226562 -6.179688 C 25.714844 -7.742188 26.476562 -10.039062 27.507812 -13.066406 L 37.792969 -42.949219 L 45.4375 -42.949219 L 45.4375 0 L 39.960938 0 L 39.960938 -35.945312 L 27.480469 0 L 22.351562 0 L 9.929688 -36.5625 L 9.929688 0 Z M 4.453125 0"/></g><g id="glyph-0-5"><path d="M 1.992188 -15.554688 C 1.992188 -21.316406 3.59375 -25.585938 6.796875 -28.359375 C 9.472656 -30.664062 12.734375 -31.816406 16.582031 -31.816406 C 20.859375 -31.816406 24.355469 -30.414062 27.070312 -27.613281 C 29.785156 -24.808594 31.140625 -20.9375 31.140625 -15.996094 C 31.140625 -11.992188 30.542969 -8.84375 29.339844 -6.546875 C 28.140625 -4.253906 26.390625 -2.46875 24.097656 -1.203125 C 21.800781 0.0664062 19.296875 0.703125 16.582031 0.703125 C 12.226562 0.703125 8.707031 -0.695312 6.019531 -3.484375 C 3.335938 -6.277344 1.992188 -10.304688 1.992188 -15.554688 Z M 7.414062 -15.554688 C 7.414062 -11.570312 8.28125 -8.589844 10.019531 -6.605469 C 11.757812 -4.625 13.945312 -3.632812 16.582031 -3.632812 C 19.199219 -3.632812 21.375 -4.628906 23.117188 -6.621094 C 24.855469 -8.613281 25.722656 -11.648438 25.722656 -15.734375 C 25.722656 -19.582031 24.847656 -22.496094 23.101562 -24.476562 C 21.351562 -26.460938 19.179688 -27.453125 16.582031 -27.453125 C 13.945312 -27.453125 11.757812 -26.464844 10.019531 -24.492188 C 8.28125 -22.519531 7.414062 -19.539062 7.414062 -15.554688 Z M 7.414062 -15.554688"/></g><g id="glyph-0-6"><path d="M 24.140625 0 L 24.140625 -3.925781 C 22.167969 -0.839844 19.265625 0.703125 15.4375 0.703125 C 12.957031 0.703125 10.679688 0.0195312 8.597656 -1.347656 C 6.519531 -2.714844 4.90625 -4.625 3.765625 -7.074219 C 2.621094 -9.527344 2.050781 -12.34375 2.050781 -15.527344 C 2.050781 -18.632812 2.570312 -21.449219 3.601562 -23.980469 C 4.636719 -26.507812 6.191406 -28.445312 8.261719 -29.796875 C 10.332031 -31.144531 12.648438 -31.816406 15.203125 -31.816406 C 17.078125 -31.816406 18.75 -31.421875 20.214844 -30.628906 C 21.679688 -29.839844 22.871094 -28.808594 23.789062 -27.539062 L 23.789062 -42.949219 L 29.03125 -42.949219 L 29.03125 0 Z M 7.46875 -15.527344 C 7.46875 -11.542969 8.3125 -8.5625 9.992188 -6.59375 C 11.671875 -4.621094 13.652344 -3.632812 15.9375 -3.632812 C 18.242188 -3.632812 20.199219 -4.574219 21.8125 -6.460938 C 23.421875 -8.34375 24.226562 -11.21875 24.226562 -15.085938 C 24.226562 -19.34375 23.40625 -22.46875 21.765625 -24.460938 C 20.125 -26.453125 18.105469 -27.453125 15.703125 -27.453125 C 13.359375 -27.453125 11.402344 -26.492188 9.828125 -24.578125 C 8.257812 -22.664062 7.46875 -19.648438 7.46875 -15.527344 Z M 7.46875 -15.527344"/></g><g id="glyph-0-7"><path d="M 25.253906 -10.019531 L 30.703125 -9.34375 C 29.84375 -6.160156 28.25 -3.691406 25.929688 -1.933594 C 23.605469 -0.175781 20.632812 0.703125 17.023438 0.703125 C 12.472656 0.703125 8.863281 -0.699219 6.195312 -3.5 C 3.53125 -6.304688 2.195312 -10.234375 2.195312 -15.292969 C 2.195312 -20.527344 3.546875 -24.589844 6.242188 -27.480469 C 8.9375 -30.371094 12.429688 -31.816406 16.726562 -31.816406 C 20.886719 -31.816406 24.289062 -30.398438 26.921875 -27.570312 C 29.558594 -24.738281 30.878906 -20.75 30.878906 -15.617188 C 30.878906 -15.304688 30.867188 -14.835938 30.851562 -14.210938 L 7.648438 -14.210938 C 7.84375 -10.792969 8.808594 -8.171875 10.546875 -6.359375 C 12.285156 -4.542969 14.453125 -3.632812 17.050781 -3.632812 C 18.984375 -3.632812 20.632812 -4.140625 22 -5.15625 C 23.367188 -6.171875 24.453125 -7.792969 25.253906 -10.019531 Z M 7.9375 -18.546875 L 25.3125 -18.546875 C 25.078125 -21.164062 24.414062 -23.125 23.320312 -24.433594 C 21.640625 -26.464844 19.460938 -27.480469 16.789062 -27.480469 C 14.367188 -27.480469 12.328125 -26.671875 10.679688 -25.046875 C 9.027344 -23.425781 8.117188 -21.257812 7.9375 -18.546875 Z M 7.9375 -18.546875"/></g><g id="glyph-0-8"><path d="M 3.835938 0 L 3.835938 -42.949219 L 9.109375 -42.949219 L 9.109375 0 Z M 3.835938 0"/></g><g id="glyph-0-9"><path d="M 3.984375 -36.882812 L 3.984375 -42.949219 L 9.257812 -42.949219 L 9.257812 -36.882812 Z M 3.984375 0 L 3.984375 -31.113281 L 9.257812 -31.113281 L 9.257812 0 Z M 3.984375 0"/></g><g id="glyph-0-10"><path d="M 3.953125 0 L 3.953125 -31.113281 L 8.703125 -31.113281 L 8.703125 -26.6875 C 10.988281 -30.105469 14.289062 -31.816406 18.601562 -31.816406 C 20.476562 -31.816406 22.203125 -31.480469 23.773438 -30.804688 C 25.347656 -30.132812 26.523438 -29.25 27.304688 -28.15625 C 28.085938 -27.0625 28.632812 -25.761719 28.945312 -24.257812 C 29.140625 -23.28125 29.238281 -21.570312 29.238281 -19.132812 L 29.238281 0 L 23.964844 0 L 23.964844 -18.925781 C 23.964844 -21.074219 23.757812 -22.679688 23.351562 -23.746094 C 22.941406 -24.808594 22.210938 -25.660156 21.167969 -26.292969 C 20.121094 -26.929688 18.898438 -27.246094 17.492188 -27.246094 C 15.246094 -27.246094 13.304688 -26.53125 11.675781 -25.109375 C 10.042969 -23.683594 9.226562 -20.976562 9.226562 -16.992188 L 9.226562 0 Z M 3.953125 0"/></g><g id="glyph-0-11"><path d="M 2.988281 2.578125 L 8.117188 3.339844 C 8.332031 4.921875 8.925781 6.074219 9.902344 6.796875 C 11.210938 7.773438 13 8.261719 15.265625 8.261719 C 17.707031 8.261719 19.589844 7.773438 20.917969 6.796875 C 22.246094 5.820312 23.144531 4.453125 23.613281 2.695312 C 23.886719 1.621094 24.015625 -0.632812 23.992188 -4.070312 C 21.6875 -1.355469 18.820312 0 15.382812 0 C 11.105469 0 7.792969 -1.542969 5.449219 -4.628906 C 3.105469 -7.714844 1.933594 -11.414062 1.933594 -15.734375 C 1.933594 -18.703125 2.46875 -21.441406 3.546875 -23.949219 C 4.621094 -26.460938 6.175781 -28.398438 8.21875 -29.765625 C 10.257812 -31.132812 12.65625 -31.816406 15.410156 -31.816406 C 19.082031 -31.816406 22.109375 -30.332031 24.492188 -27.363281 L 24.492188 -31.113281 L 29.355469 -31.113281 L 29.355469 -4.21875 C 29.355469 0.625 28.863281 4.058594 27.875 6.078125 C 26.890625 8.101562 25.328125 9.695312 23.1875 10.867188 C 21.050781 12.039062 18.417969 12.625 15.292969 12.625 C 11.582031 12.625 8.585938 11.792969 6.296875 10.121094 C 4.011719 8.453125 2.910156 5.9375 2.988281 2.578125 Z M 7.351562 -16.113281 C 7.351562 -12.03125 8.164062 -9.054688 9.785156 -7.179688 C 11.40625 -5.304688 13.4375 -4.367188 15.878906 -4.367188 C 18.300781 -4.367188 20.332031 -5.296875 21.972656 -7.164062 C 23.613281 -9.027344 24.433594 -11.953125 24.433594 -15.9375 C 24.433594 -19.746094 23.589844 -22.617188 21.898438 -24.550781 C 20.210938 -26.484375 18.171875 -27.453125 15.789062 -27.453125 C 13.445312 -27.453125 11.453125 -26.5 9.8125 -24.59375 C 8.171875 -22.691406 7.351562 -19.863281 7.351562 -16.113281 Z M 7.351562 -16.113281"/></g></defs><g><use y="50" xlink:href="#glyph-0-0"/><use x="46.67" y="50" xlink:href="#glyph-0-1"/><use x="90" y="50" xlink:href="#glyph-0-2"/><use x="130.195" y="50" xlink:href="#glyph-0-3"/></g><g><use y="120" xlink:href="#glyph-0-4"/><use x="49.98" y="120" xlink:href="#glyph-0-5"/><use x="83.35" y="120" xlink:href="#glyph-0-6"/><use x="116.719" y="120" xlink:href="#glyph-0-7"/><use x="150.088" y="120" xlink:href="#glyph-0-8"/><use x="163.418" y="120" xlink:href="#glyph-0-8"/><use x="176.748" y="120" xlink:href="#glyph-0-9"/><use x="190.078" y="120" xlink:href="#glyph-0-10"/><use x="223.447" y="120" xlink:href="#glyph-0-11"/></g></svg>

<svg xmlns="http://www.w3.org/2000/svg" role="img" xmlns:xlink="http://www.w3.org/1999/xlink" viewBox="-2.25 1.25 260.00 136.25"><title>ONAP Modelling logo</title><defs><path d="M2.89844-20.91797c0-7.1289 1.91406-12.71094 5.74218-16.74219 3.82813-4.03515 8.77344-6.05078 14.82813-6.05078 3.96484 0 7.53906.94532 10.71875 2.84375 3.1836 1.89453 5.61328 4.53516 7.28125 7.92188 1.67188 3.39062 2.50781 7.23437 2.50781 11.53125 0 4.35547-.88281 8.25-2.64062 11.6875-1.75782 3.4375-4.2461 6.03906-7.46875 7.8086C30.64453-.15235 27.16797.73436 23.4375.73436c-4.04297 0-7.65625-.97656-10.83984-2.92968-3.1836-1.95313-5.59766-4.6211-7.23828-8-1.64063-3.3789-2.46094-6.95313-2.46094-10.72266zm5.85937.08985c0 5.17578 1.39453 9.25 4.17578 12.23046 2.78516 2.97657 6.27735 4.46485 10.47266 4.46485 4.27734 0 7.80078-1.5 10.5625-4.50781 2.76563-3.00782 4.14844-7.27735 4.14844-12.8047 0-3.49609-.59375-6.54687-1.77344-9.15624-1.1836-2.60547-2.91016-4.6289-5.1875-6.0625-2.27344-1.4375-4.82813-2.15625-7.66016-2.15625-4.02343 0-7.48437 1.38281-10.38671 4.14843-2.89844 2.76172-4.35157 7.375-4.35157 13.84376zm0 0" id="a"/><path d="M4.57031 0v-42.94922h5.82813l22.5625 33.72266v-33.72266h5.44531V0h-5.82813L10.01954-33.75V0zm0 0" id="b"/><path d="M-.08594 0l16.49219-42.94922h6.125L40.10938 0H33.6328L28.625-13.00781H10.66406L5.94531 0zM12.3047-17.63672h14.5625L22.3828-29.53125C21.01563-33.14453 20-36.11328 19.33594-38.4375c-.54688 2.7539-1.32032 5.48828-2.3125 8.20313zm0 0" id="c"/><path d="M4.6289 0v-42.94922h16.19922c2.85157 0 5.03126.13672 6.53516.41016 2.10938.35156 3.8789 1.01953 5.30078 2.00781 1.42578.98438 2.57422 2.36719 3.44532 4.14453.86718 1.77734 1.30468 3.73047 1.30468 5.85938 0 3.65234-1.16406 6.74218-3.48828 9.27343-2.32422 2.52735-6.52344 3.79297-12.59766 3.79297H10.3125V0zm5.6836-22.53125h11.10156c3.67188 0 6.28125-.67969 7.82422-2.04688 1.54297-1.36718 2.3164-3.29296 2.3164-5.77343 0-1.79688-.45702-3.33594-1.36327-4.61328-.91016-1.28125-2.10547-2.125-3.58985-2.53516-.95703-.2539-2.72656-.38281-5.30468-.38281H10.3125zm0 0" id="d"/><path d="M4.45313 0v-42.94922h8.55468l10.16407 30.41016c.9375 2.83203 1.625 4.95312 2.05468 6.35937.48828-1.5625 1.25-3.85937 2.28125-6.88672l10.28516-29.8828h7.64453V0h-5.47656v-35.94531L27.48047 0h-5.1289L9.92968-36.5625V0zm0 0" id="e"/><path d="M1.99219-15.55469c0-5.76172 1.60156-10.03125 4.80468-12.80468 2.67579-2.3047 5.9375-3.45704 9.78516-3.45704 4.27735 0 7.77344 1.40235 10.48828 4.20313 2.71485 2.80469 4.07032 6.67578 4.07032 11.61719 0 4.0039-.59766 7.15234-1.80079 9.44922-1.19921 2.29296-2.94921 4.07812-5.24218 5.34375C21.80078.0664 19.29687.70311 16.58203.70311c-4.35547 0-7.875-1.39843-10.5625-4.1875-2.6836-2.79296-4.02734-6.8203-4.02734-12.0703zm5.42187 0c0 3.98438.86719 6.96485 2.60547 8.94922 1.73828 1.98047 3.92578 2.97266 6.5625 2.97266 2.61719 0 4.79297-.9961 6.53516-2.98828 1.73828-1.9922 2.60547-5.02735 2.60547-9.11329 0-3.84765-.875-6.76171-2.6211-8.74218-1.75-1.98438-3.92187-2.97657-6.51953-2.97657-2.63672 0-4.82422.98829-6.5625 2.96094-1.73828 1.97266-2.60547 4.95313-2.60547 8.9375zm0 0" id="f"/><path d="M24.14063 0v-3.92578c-1.97266 3.08594-4.875 4.6289-8.70313 4.6289-2.48047 0-4.75781-.68359-6.83984-2.05078C6.51953-2.71484 4.90625-4.625 3.76563-7.07422c-1.14454-2.45312-1.71485-5.26953-1.71485-8.45312 0-3.10547.51953-5.92188 1.55078-8.45313 1.03516-2.52734 2.58985-4.46484 4.66016-5.8164 2.07031-1.34766 4.38672-2.01954 6.9414-2.01954 1.875 0 3.54688.39454 5.01172 1.1875 1.46485.78907 2.65625 1.82032 3.57422 3.08985v-15.41016h5.24219V0zM7.46874-15.52734c0 3.98437.84375 6.96484 2.52344 8.93359 1.67968 1.97266 3.66015 2.96094 5.94531 2.96094 2.30469 0 4.26172-.9414 5.875-2.82813 1.60938-1.88281 2.41406-4.75781 2.41406-8.625 0-4.25781-.82031-7.38281-2.46093-9.375-1.64063-1.99218-3.66016-2.99218-6.0625-2.99218-2.34375 0-4.30079.96093-5.875 2.875-1.57032 1.91406-2.35938 4.92968-2.35938 9.05078zm0 0" id="g"/><path d="M25.2539-10.01953l5.44922.67578c-.85937 3.1836-2.45312 5.65234-4.77343 7.41016C23.60547-.1758 20.6328.70312 17.02344.70312 12.47266.70313 8.86328-.69921 6.1953-3.5c-2.66406-2.80469-4-6.73438-4-11.79297 0-5.23437 1.35156-9.29687 4.04688-12.1875 2.69531-2.89062 6.1875-4.33594 10.48437-4.33594 4.16016 0 7.5625 1.41797 10.19532 4.2461C29.55859-24.73828 30.8789-20.75 30.8789-15.6172c0 .3125-.01172.78125-.02735 1.40625H7.64844c.19531 3.41797 1.16015 6.03907 2.89844 7.85157 1.73828 1.8164 3.90625 2.72656 6.5039 2.72656 1.9336 0 3.58203-.50781 4.94922-1.52344 1.36719-1.01563 2.45313-2.63672 3.2539-4.86328zM7.9375-18.54688h17.375c-.23438-2.61718-.89844-4.57812-1.99219-5.88671-1.67968-2.03125-3.85937-3.04688-6.53125-3.04688-2.42187 0-4.46093.8086-6.10937 2.4336-1.65235 1.62109-2.5625 3.78906-2.74219 6.5zm0 0" id="h"/><path d="M3.83594 0v-42.94922h5.27343V0zm0 0" id="i"/><path d="M3.98438-36.88281v-6.0664H9.2578v6.0664zM3.98438 0v-31.11328H9.2578V0zm0 0" id="j"/><path d="M3.95313 0v-31.11328h4.75v4.42578c2.28515-3.41797 5.58593-5.1289 9.89843-5.1289 1.875 0 3.60157.33593 5.17188 1.01171 1.57422.67188 2.75 1.55469 3.53125 2.64844s1.32812 2.39453 1.64062 3.89844c.19532.97656.29297 2.6875.29297 5.125V0h-5.27344v-18.92578c0-2.14844-.20703-3.7539-.61328-4.82031-.41015-1.0625-1.14062-1.91407-2.1836-2.54688-1.04687-.63672-2.26952-.95312-3.67577-.95312-2.2461 0-4.1875.71484-5.8164 2.13671-1.63282 1.42579-2.44923 4.13282-2.44923 8.1172V0zm0 0" id="k"/><path d="M2.98828 2.57813l5.1289.76171c.21485 1.58203.8086 2.73438 1.78516 3.45703 1.3086.97657 3.09766 1.46485 5.36328 1.46485 2.44141 0 4.32422-.48828 5.65235-1.46485 1.32812-.97656 2.22656-2.34375 2.69531-4.10156.27344-1.07422.40235-3.32812.3789-6.76562C21.6875-1.35547 18.82032 0 15.38282 0c-4.27734 0-7.58984-1.54297-9.9336-4.6289C3.10548-7.71485 1.9336-11.41407 1.9336-15.73438c0-2.96875.53516-5.70704 1.61329-8.21485 1.07421-2.51172 2.6289-4.44922 4.67187-5.8164 2.03906-1.3672 4.4375-2.05079 7.1914-2.05079 3.67188 0 6.69923 1.48438 9.08204 4.45313v-3.75h4.86328v26.89453c0 4.84375-.49219 8.27734-1.48047 10.29688-.98438 2.02343-2.54688 3.61718-4.6875 4.78906-2.13672 1.17187-4.76953 1.75781-7.89453 1.75781-3.71094 0-6.70703-.83203-8.9961-2.5039-2.28515-1.66798-3.38671-4.1836-3.30859-7.54298zm4.36328-18.69141c0 4.08203.8125 7.0586 2.4336 8.9336 1.62109 1.875 3.65234 2.8125 6.09375 2.8125 2.42187 0 4.45312-.9297 6.09375-2.79688 1.64062-1.86328 2.46093-4.78906 2.46093-8.77344 0-3.8086-.84375-6.67969-2.53515-8.61328-1.6875-1.9336-3.72657-2.90235-6.10938-2.90235-2.34375 0-4.33593.95313-5.97656 2.85938-1.64063 1.90234-2.46094 4.73047-2.46094 8.48047zm0 0" id="l"/></defs><use y="50" xlink:href="#a"/><use x="46.67" y="50" xlink:href="#b"/><use x="90" y="50" xlink:href="#c"/><use x="130.195" y="50" xlink:href="#d"/><g><use y="120" xlink:href="#e"/><use x="49.98" y="120" xlink:href="#f"/><use x="83.35" y="120" xlink:href="#g"/><use x="116.719" y="120" xlink:href="#h"/><use x="150.088" y="120" xlink:href="#i"/><use x="163.418" y="120" xlink:href="#i"/><use x="176.748" y="120" xlink:href="#j"/><use x="190.078" y="120" xlink:href="#k"/><use x="223.447" y="120" xlink:href="#l"/></g></svg>
